img/svg/youtube.svg

<svg width="24" height="24" viewBox="0 0 24 24"  xmlns="http://www.w3.org/2000/svg">
<path d="M23.7609 7.1998C23.7609 7.1998 23.5266 5.54512 22.8047 4.81855C21.8906 3.8623 20.8688 3.85762 20.4 3.80137C17.0438 3.55762 12.0047 3.55762 12.0047 3.55762H11.9953C11.9953 3.55762 6.95625 3.55762 3.6 3.80137C3.13125 3.85762 2.10938 3.8623 1.19531 4.81855C0.473438 5.54512 0.24375 7.1998 0.24375 7.1998C0.24375 7.1998 0 9.14512 0 11.0857V12.9045C0 14.8451 0.239062 16.7904 0.239062 16.7904C0.239062 16.7904 0.473437 18.4451 1.19062 19.1717C2.10469 20.1279 3.30469 20.0951 3.83906 20.1982C5.76094 20.3811 12 20.4373 12 20.4373C12 20.4373 17.0438 20.4279 20.4 20.1889C20.8688 20.1326 21.8906 20.1279 22.8047 19.1717C23.5266 18.4451 23.7609 16.7904 23.7609 16.7904C23.7609 16.7904 24 14.8498 24 12.9045V11.0857C24 9.14512 23.7609 7.1998 23.7609 7.1998ZM9.52031 15.1123V8.36699L16.0031 11.7514L9.52031 15.1123Z" />
</svg>

<svg width="24" height="24" viewBox="0 0 24 24" xmlns="http://www.w3.org/2000/svg"><path d="M23.76 7.2s-.233-1.655-.955-2.381c-.914-.957-1.936-.961-2.405-1.018-3.356-.243-8.395-.243-8.395-.243h-.01s-5.039 0-8.395.243c-.469.057-1.49.061-2.405 1.018-.722.726-.951 2.38-.951 2.38S0 9.146 0 11.087v1.819c0 1.94.24 3.885.24 3.885s.233 1.655.95 2.382c.915.956 2.115.923 2.65 1.026 1.92.183 8.16.24 8.16.24s5.044-.01 8.4-.25c.469-.055 1.49-.06 2.405-1.016.722-.727.956-2.382.956-2.382S24 14.85 24 12.905v-1.82c0-1.94-.24-3.885-.24-3.885zM9.52 15.112V8.367l6.483 3.384-6.483 3.361z"/></svg>
